X:1
T:Bobby Casey's Hornpipe
T:Humours of Tullycreen
L:1/8
M:4/4
Z:Transcribed by Jerome Colburn
F:http://www.ibiblio.org/fiddlers/BO_BOG.htm
K:Ador
AG |\
EAAB cBcd | eaag (3efg dB | c2 Ac BAGA | Bdde dBAG | EAAB cBcd |
eaag (3efg dB | c2 (3ABc BAGB | A2 AG A2 :: cd | eaab ageg | agab aged |
c2 Ac BAGA | Bdde dBAG | EAAB cBcd | eaag egdB | c2 (3ABc dBGF | EAAG A2 :|
